icons/rss-line.svg

<svg xmlns="http://www.w3.org/2000/svg" width="24" height="24" fill="none"><g clip-path="url(#a)"><g><path fill="#121212" d="M3 17C4.06087 17 5.07828 17.4214 5.82843 18.1716C6.57857 18.9217 7 19.9391 7 21H3V17ZM3 10C9.075 10 14 14.925 14 21H12C12 18.6131 11.0518 16.3239 9.36396 14.636C7.67613 12.9482 5.38695 12 3 12V10ZM3 3C12.941 3 21 11.059 21 21H19C19 12.163 11.837 5 3 5V3Z"/></g></g><defs><clipPath id="a"><rect width="24" height="24" fill="white"/></clipPath></defs></svg>

<svg width="24" height="24" fill="none" xmlns="http://www.w3.org/2000/svg"><g clip-path="url(#a)"><path d="M3 17a4 4 0 0 1 4 4H3v-4Zm0-7c6.075 0 11 4.925 11 11h-2a9 9 0 0 0-9-9v-2Zm0-7c9.941 0 18 8.059 18 18h-2c0-8.837-7.163-16-16-16V3Z" /></g><defs><clipPath id="a"><path fill="#fff" d="M0 0h24v24H0z"/></clipPath></defs></svg>
